X:251
T:Reel 251
M:4/4
K:Emin
L:1/8
d|Bee^d efge|dBAG FDDF|EGFA B2ef|gefd Beed|Beef gfed|BdAF FEEF|EDB,F GFGA| (3B^cd AF FEE2|||E|Bee^d efe=d|Bdfe dBAc|Bee^d efe=d|AFdF E2EF|Be (3ede fgaf| (3gfe fa edBA|GBAB cBAGFE|DFGA BEE|
